X:1113
T:Irish Dance.
M:6/8
L:1/8
Q:3/8=120
I: :: ::
Z:Jack Campin * www.campin.me.uk * 2009
K:G
d       |TB2G   TB2G|  TB2G    dcB|   TA2=F  TA2F|TA2=F   cBA|
         TB2G   TB2G|  Td2B    gfe|    dcB    cAF| G3    HG2:|
d/e//f//| gGg    GgG|   gGg {a}gfg|{^g}aAa    aAa| aAa {b}aga|
          bag {b}agf|{a}gfe {g}fed|    e/f/ge dcB| ecA    ABc|
         TB2G   TB2G|  TB2G    cBA|   TA2=F  TA2F|TA2=F   cBA|
         TB2G   TB2G|  Td2B    gfe|    dcB    cAF| G3     G2:|

